X: 2
T:Boys of the 25
M:4/4
L:1/8
S:Gerry McCartney, Belfast (banjo-mandolin)
R:Reel
D:Session tape - Ballaghadereen Fleadh, 1977
N:As played
Z:Bernie Stocks
K:G %ie. Am 1 #
cBAF G2AB | cBAG AddB | cBAF G2eg | fded Add2 :: fefg a3g |
fefg afde |1 fefg a3g | fded Adde :|2 fgaf g2ag | fded Add2 ||
<end>
<start>
